X:65
T: Graf und Nonne (Die Nonne)
N: Q0155B
O: Osteuropa, UdSSR, Russland, Bessarabien
N: Verzierungen (Vorschlaege) in der dritten und sechsten Zeile.
R: Ballade, Standesunterschied, vergebliche Werbung, Liebes - Lied
M: 4/4
L: 1/8
K: G
D2 | G3FA2EF | G2G2D2
D2 | B2B2ABc2 | B2z4
GA | B3dd2e2 | d2edc2
B2 | A3AA2B2 | cde2d2
dc | B2B2ABc2 | B4z2
GA | B3dd2e2 | d2edc2
B2 | A3AA2B2 | cde2d2
dc | B2B2ABc2 | B4z2

